poi/svg/1107.svg

<?xml version="1.0" encoding="UTF-8" standalone="no"?>
<svg
   xmlns:dc="http://purl.org/dc/elements/1.1/"
   xmlns:cc="http://creativecommons.org/ns#"
   xmlns:rdf="http://www.w3.org/1999/02/22-rdf-syntax-ns#"
   xmlns:svg="http://www.w3.org/2000/svg"
   xmlns="http://www.w3.org/2000/svg"
   xmlns:sodipodi="http://sodipodi.sourceforge.net/DTD/sodipodi-0.dtd"
   xmlns:inkscape="http://www.inkscape.org/namespaces/inkscape"
   inkscape:version="1.0 (4035a4fb49, 2020-05-01)"
   sodipodi:docname="1107.svg"
   id="svg20"
   version="1.2"
   viewBox="0 0 42.519639 42.519639"
   height="14.999999mm"
   width="14.999999mm">
  <metadata
     id="metadata24">
    <rdf:RDF>
      <cc:Work
         rdf:about="">
        <dc:format>image/svg+xml</dc:format>
        <dc:type
           rdf:resource="http://purl.org/dc/dcmitype/StillImage" />
        <dc:title>Qt SVG Document</dc:title>
      </cc:Work>
    </rdf:RDF>
  </metadata>
  <sodipodi:namedview
     inkscape:current-layer="svg20"
     inkscape:window-maximized="1"
     inkscape:window-y="-9"
     inkscape:window-x="-9"
     inkscape:cy="28.346482"
     inkscape:cx="28.346482"
     inkscape:zoom="18.047943"
     showgrid="false"
     id="namedview22"
     inkscape:window-height="1013"
     inkscape:window-width="1920"
     inkscape:pageshadow="2"
     inkscape:pageopacity="0"
     guidetolerance="10"
     gridtolerance="10"
     objecttolerance="10"
     borderopacity="1"
     bordercolor="#666666"
     pagecolor="#ffffff" />
  <title
     id="title2">Qt SVG Document</title>
  <desc
     id="desc4">Generated with Qt</desc>
  <defs
     id="defs6" />
  <g
     transform="translate(5.25984,5.25984)"
     id="g18"
     stroke-linejoin="bevel"
     stroke-linecap="square"
     fill-rule="evenodd"
     stroke-width="1"
     stroke="#000000"
     fill="none">
    <g
       id="g10"
       font-style="normal"
       font-weight="400"
       font-size="7.8px"
       font-family="'MS Shell Dlg 2'"
       stroke="none"
       fill-opacity="1"
       fill="#3d97f1">
      <path
         id="path8"
         d="M 37.2598,16 C 37.2598,27.7415 27.7415,37.2598 16,37.2598 4.25851,37.2598 -5.25984,27.7415 -5.25984,16 -5.25984,4.25851 4.25851,-5.25984 16,-5.25984 27.7415,-5.25984 37.2598,4.25851 37.2598,16"
         fill-rule="evenodd"
         vector-effect="non-scaling-stroke" />
    </g>
    <g
       id="g14"
       font-style="normal"
       font-weight="400"
       font-size="7.8px"
       font-family="'MS Shell Dlg 2'"
       transform="translate(16.5669,13.1654)"
       stroke="none"
       fill-opacity="0.94902"
       fill="#ffffff">
      <path
         id="path12"
         d="M -2.68848,5.42725 C -2.82194,5.53402 -2.95207,5.62744 -3.07886,5.70752 -3.20565,5.7876 -3.33577,5.89437 -3.46924,6.02783 h -0.24023 v 0.42041 c -0.09343,0.10677 -0.14681,0.2002 -0.16016,0.28028 -0.01335,0.08007 -0.04671,0.16683 -0.1001,0.26025 H -4.99072 V 6.02783 h -1.30127 v 0.96094 h 1.30127 v 0.94092 h 0.8208 v 0.08008 3.92383 h -4.02393 v 1.5615 c 0,0.3337 -0.10677,0.6306 -0.32031,0.8909 -0.21354,0.2602 -0.50049,0.3904 -0.86084,0.3904 -0.36035,0 -0.6473,-0.1302 -0.8608,-0.3904 -0.2136,-0.2603 -0.3204,-0.5572 -0.3204,-0.8909 v -1.5615 h -1.6416 V 3.28516 c 0.0534,-0.84082 0.1335,-1.66162 0.2403,-2.462406 0.0534,-0.680664 0.1268,-1.374675 0.2202,-2.082034 0.0934,-0.70735 0.1735,-1.29459 0.2402,-1.76172 0.0267,-0.5205 0.0868,-0.95092 0.1802,-1.29126 0.0934,-0.34033 0.2135,-0.63395 0.3604,-0.88086 0.1468,-0.2469 0.337,-0.46712 0.5705,-0.66064 0.2336,-0.19352 0.51718,-0.37036 0.85084,-0.53052 0.98763,-0.46712 2.01197,-0.79744 3.073,-0.99096 1.06104,-0.19353 2.16545,-0.29029 3.31323,-0.29029 1.17448,0 2.295577,0.09676 3.363285,0.29029 1.067705,0.19352 2.095375,0.52384 3.083005,0.99096 0.32032,0.16016 0.59725,0.337 0.83081,0.53052 0.23357,0.19352 0.42709,0.41374 0.58057,0.66064 0.15348,0.24691 0.27026,0.54053 0.35034,0.88086 0.08008,0.34034 0.14681,0.77076 0.2002,1.29126 0.08008,0.44043 0.14681,1.00098 0.20019,1.68164 0.05339,0.680669 0.12679,1.374679 0.22022,2.082036 H 4.23828 C 4.1849,0.115397 4.13151,-0.465169 4.07813,-0.999023 4.02474,-1.53288 3.92464,-2.18018 3.77783,-2.94092 c 0,-0.52051 -0.30029,-0.78076 -0.90088,-0.78076 H -9.13477 c -0.49381,0 -0.80745,0.23356 -0.94093,0.70068 -0.0534,0.52051 -0.1001,0.9843 -0.1401,1.39136 -0.0401,0.40707 -0.0801,0.810792 -0.1201,1.211183 -0.0401,0.4003906 -0.0801,0.804118 -0.1202,1.211182 -0.04,0.407065 -0.0734,0.870845 -0.1001,1.391355 0,0.26693 0.0735,0.49048 0.2203,0.67066 0.1468,0.18017 0.36031,0.27026 0.64059,0.27026 h 7.94775 L -2.68848,5.42725 M -6.87256,-6.02393 c -0.36035,0 -0.54053,0.19353 -0.54053,0.58057 0,0.41374 0.18018,0.62061 0.54053,0.62061 h 7.507326 c 0.400394,0 0.600584,-0.20687 0.600584,-0.62061 0,-0.38704 -0.20019,-0.58057 -0.600584,-0.58057 H -6.87256 M -9.375,8.49023 c 0.38704,0 0.73071,-0.14347 1.03101,-0.43042 0.30029,-0.28694 0.45044,-0.64396 0.45044,-1.07104 0,-0.38704 -0.15015,-0.74406 -0.45044,-1.07105 -0.3003,-0.32698 -0.64397,-0.49047 -1.03101,-0.49047 -0.38704,0 -0.724,0.16349 -1.011,0.49047 -0.2869,0.32699 -0.4304,0.68401 -0.4304,1.07105 0,0.42708 0.1435,0.7841 0.4304,1.07104 0.287,0.28695 0.62396,0.43042 1.011,0.43042 M 1.93604,13.0547 h 2.38232 v 0.4404 c 0,0.3337 -0.11678,0.6306 -0.35034,0.8909 -0.23356,0.2602 -0.5105,0.3904 -0.83081,0.3904 -0.36035,0 -0.65064,-0.1302 -0.87085,-0.3904 C 2.04614,14.1257 1.93604,13.8288 1.93604,13.4951 V 13.0547 M 10.4644,6.02783 c 0.387,0.14681 0.7173,0.39706 0.9909,0.75073 0.2736,0.35368 0.4104,0.76408 0.4104,1.23121 v 4.26413 h -1.3213 v 1.3814 c 0,0.3336 -0.0934,0.6306 -0.2802,0.8908 -0.1869,0.2603 -0.46049,0.3904 -0.82084,0.3904 -0.36035,0 -0.66065,-0.1301 -0.90088,-0.3904 C 8.30225,14.2859 8.18213,13.9889 8.18213,13.6553 V 12.2739 H 0.214355 v 1.3814 c 0,0.3336 -0.1167801,0.6306 -0.350341,0.8908 -0.233562,0.2603 -0.510498,0.3904 -0.830811,0.3904 -0.306963,0 -0.590573,-0.1301 -0.850833,-0.3904 -0.26025,-0.2602 -0.39038,-0.5572 -0.39038,-0.8908 V 12.2739 H -3.38916 V 8.00977 c 0,-0.46713 0.12345,-0.87753 0.37036,-1.23121 0.24691,-0.35367 0.59058,-0.60392 1.03101,-0.75073 L -0.646484,2.34424 C -0.566406,2.1307 -0.402913,1.93384 -0.156006,1.75366 0.0909017,1.57349 0.327799,1.4834 0.554688,1.4834 H 7.8418 c 0.30696,0 0.56054,0.09009 0.76074,0.27026 0.20019,0.18018 0.3737,0.37704 0.52051,0.59058 L 10.4644,6.02783 M -0.966797,9.57129 c 0.240234,0 0.470459,-0.10344 0.690674,-0.3103 0.2202148,-0.20687 0.3303222,-0.46379 0.3303222,-0.77076 0,-0.32031 -0.1101074,-0.5839 -0.3303222,-0.79077 -0.220215,-0.20687 -0.45044,-0.3103 -0.690674,-0.3103 -0.306963,0 -0.553873,0.10343 -0.740723,0.3103 -0.18685,0.20687 -0.28027,0.47046 -0.28027,0.79077 0,0.30697 0.09342,0.56389 0.28027,0.77076 0.18685,0.20686 0.43376,0.3103 0.740723,0.3103 M 9.20313,6.02783 8.08203,2.88477 C 8.00195,2.71126 7.88184,2.62451 7.72168,2.62451 H 0.714844 c -0.133464,0 -0.246908,0.08675 -0.340332,0.26026 L -0.806641,6.02783 H 9.20313 m 0.24023,3.54346 c 0.30697,0 0.55387,-0.10344 0.74074,-0.3103 0.1868,-0.20687 0.2803,-0.46379 0.2803,-0.77076 0,-0.32031 -0.0935,-0.5839 -0.2803,-0.79077 -0.18687,-0.20687 -0.43377,-0.3103 -0.74074,-0.3103 -0.29362,0 -0.53719,0.10343 -0.73071,0.3103 -0.19353,0.20687 -0.29029,0.47046 -0.29029,0.79077 0,0.30697 0.09676,0.56389 0.29029,0.77076 0.19352,0.20686 0.43709,0.3103 0.73071,0.3103"
         fill-rule="evenodd"
         vector-effect="none" />
    </g>
    <g
       id="g16"
       font-style="normal"
       font-weight="400"
       font-size="7.8px"
       font-family="'MS Shell Dlg 2'"
       stroke="none"
       fill-opacity="1"
       fill="#3d97f1" />
  </g>
</svg>

<?xml version="1.0" encoding="UTF-8" standalone="no"?>
<svg width="11.2889mm" height="11.2889mm"
 viewBox="0 0 32 32"
 xmlns="http://www.w3.org/2000/svg" xmlns:xlink="http://www.w3.org/1999/xlink"  version="1.2" baseProfile="tiny">
<title>Qt SVG Document</title>
<desc>Generated with Qt</desc>
<defs>
</defs>
<g fill="none" stroke="black" stroke-width="1" fill-rule="evenodd" stroke-linecap="square" stroke-linejoin="bevel" >

<g fill="#3d97f1" fill-opacity="1" stroke="none" transform="matrix(1,0,0,1,0,0)"
font-family="MS Shell Dlg 2" font-size="7.8" font-weight="400" font-style="normal" 
>
<path vector-effect="non-scaling-stroke" fill-rule="evenodd" d="M37.2598,16 C37.2598,27.7415 27.7415,37.2598 16,37.2598 C4.25851,37.2598 -5.25984,27.7415 -5.25984,16 C-5.25984,4.25851 4.25851,-5.25984 16,-5.25984 C27.7415,-5.25984 37.2598,4.25851 37.2598,16 "/>
</g>

<g fill="#ffffff" fill-opacity="0.94902" stroke="none" transform="matrix(1,0,0,1,16.5669,13.1654)"
font-family="MS Shell Dlg 2" font-size="7.8" font-weight="400" font-style="normal" 
>
<path vector-effect="none" fill-rule="evenodd" d="M-2.68848,5.42725 C-2.82194,5.53402 -2.95207,5.62744 -3.07886,5.70752 C-3.20565,5.7876 -3.33577,5.89437 -3.46924,6.02783 L-3.70947,6.02783 L-3.70947,6.44824 C-3.8029,6.55501 -3.85628,6.64844 -3.86963,6.72852 C-3.88298,6.80859 -3.91634,6.89535 -3.96973,6.98877 L-4.99072,6.98877 L-4.99072,6.02783 L-6.29199,6.02783 L-6.29199,6.98877 L-4.99072,6.98877 L-4.99072,7.92969 L-4.16992,7.92969 L-4.16992,8.00977 L-4.16992,11.9336 L-8.19385,11.9336 L-8.19385,13.4951 C-8.19385,13.8288 -8.30062,14.1257 -8.51416,14.386 C-8.7277,14.6462 -9.01465,14.7764 -9.375,14.7764 C-9.73535,14.7764 -10.0223,14.6462 -10.2358,14.386 C-10.4494,14.1257 -10.5562,13.8288 -10.5562,13.4951 L-10.5562,11.9336 L-12.1978,11.9336 L-12.1978,3.28516 C-12.1444,2.44434 -12.0643,1.62354 -11.9575,0.822754 C-11.9041,0.14209 -11.8307,-0.551921 -11.7373,-1.25928 C-11.6439,-1.96663 -11.5638,-2.55387 -11.4971,-3.021 C-11.4704,-3.5415 -11.4103,-3.97192 -11.3169,-4.31226 C-11.2235,-4.65259 -11.1034,-4.94621 -10.9565,-5.19312 C-10.8097,-5.44002 -10.6195,-5.66024 -10.386,-5.85376 C-10.1524,-6.04728 -9.86882,-6.22412 -9.53516,-6.38428 C-8.54753,-6.8514 -7.52319,-7.18172 -6.46216,-7.37524 C-5.40112,-7.56877 -4.29671,-7.66553 -3.14893,-7.66553 C-1.97445,-7.66553 -0.853353,-7.56877 0.214355,-7.37524 C1.28206,-7.18172 2.30973,-6.8514 3.29736,-6.38428 C3.61768,-6.22412 3.89461,-6.04728 4.12817,-5.85376 C4.36174,-5.66024 4.55526,-5.44002 4.70874,-5.19312 C4.86222,-4.94621 4.979,-4.65259 5.05908,-4.31226 C5.13916,-3.97192 5.20589,-3.5415 5.25928,-3.021 C5.33936,-2.58057 5.40609,-2.02002 5.45947,-1.33936 C5.51286,-0.658691 5.58626,0.035319 5.67969,0.742676 L4.23828,0.742676 C4.1849,0.115397 4.13151,-0.465169 4.07813,-0.999023 C4.02474,-1.53288 3.92464,-2.18018 3.77783,-2.94092 C3.77783,-3.46143 3.47754,-3.72168 2.87695,-3.72168 L-9.13477,-3.72168 C-9.62858,-3.72168 -9.94222,-3.48812 -10.0757,-3.021 C-10.1291,-2.50049 -10.1758,-2.0367 -10.2158,-1.62964 C-10.2559,-1.22257 -10.2959,-0.818848 -10.3359,-0.418457 C-10.376,-0.0180664 -10.416,0.385661 -10.4561,0.792725 C-10.4961,1.19979 -10.5295,1.66357 -10.5562,2.18408 C-10.5562,2.45101 -10.4827,2.67456 -10.3359,2.85474 C-10.1891,3.03491 -9.97559,3.125 -9.69531,3.125 L-1.74756,3.125 L-2.68848,5.42725 M-6.87256,-6.02393 C-7.23291,-6.02393 -7.41309,-5.8304 -7.41309,-5.44336 C-7.41309,-5.02962 -7.23291,-4.82275 -6.87256,-4.82275 L0.634766,-4.82275 C1.03516,-4.82275 1.23535,-5.02962 1.23535,-5.44336 C1.23535,-5.8304 1.03516,-6.02393 0.634766,-6.02393 L-6.87256,-6.02393 M-9.375,8.49023 C-8.98796,8.49023 -8.64429,8.34676 -8.34399,8.05981 C-8.0437,7.77287 -7.89355,7.41585 -7.89355,6.98877 C-7.89355,6.60173 -8.0437,6.24471 -8.34399,5.91772 C-8.64429,5.59074 -8.98796,5.42725 -9.375,5.42725 C-9.76204,5.42725 -10.099,5.59074 -10.386,5.91772 C-10.6729,6.24471 -10.8164,6.60173 -10.8164,6.98877 C-10.8164,7.41585 -10.6729,7.77287 -10.386,8.05981 C-10.099,8.34676 -9.76204,8.49023 -9.375,8.49023 M1.93604,13.0547 L4.31836,13.0547 L4.31836,13.4951 C4.31836,13.8288 4.20158,14.1257 3.96802,14.386 C3.73446,14.6462 3.45752,14.7764 3.13721,14.7764 C2.77686,14.7764 2.48657,14.6462 2.26636,14.386 C2.04614,14.1257 1.93604,13.8288 1.93604,13.4951 L1.93604,13.0547 M10.4644,6.02783 C10.8514,6.17464 11.1817,6.42489 11.4553,6.77856 C11.7289,7.13224 11.8657,7.54264 11.8657,8.00977 L11.8657,12.2739 L10.5444,12.2739 L10.5444,13.6553 C10.5444,13.9889 10.451,14.2859 10.2642,14.5461 C10.0773,14.8064 9.80371,14.9365 9.44336,14.9365 C9.08301,14.9365 8.78271,14.8064 8.54248,14.5461 C8.30225,14.2859 8.18213,13.9889 8.18213,13.6553 L8.18213,12.2739 L0.214355,12.2739 L0.214355,13.6553 C0.214355,13.9889 0.0975749,14.2859 -0.135986,14.5461 C-0.369548,14.8064 -0.646484,14.9365 -0.966797,14.9365 C-1.27376,14.9365 -1.55737,14.8064 -1.81763,14.5461 C-2.07788,14.2859 -2.20801,13.9889 -2.20801,13.6553 L-2.20801,12.2739 L-3.38916,12.2739 L-3.38916,8.00977 C-3.38916,7.54264 -3.26571,7.13224 -3.0188,6.77856 C-2.77189,6.42489 -2.42822,6.17464 -1.98779,6.02783 L-0.646484,2.34424 C-0.566406,2.1307 -0.402913,1.93384 -0.156006,1.75366 C0.0909017,1.57349 0.327799,1.4834 0.554688,1.4834 L7.8418,1.4834 C8.14876,1.4834 8.40234,1.57349 8.60254,1.75366 C8.80273,1.93384 8.97624,2.1307 9.12305,2.34424 L10.4644,6.02783 M-0.966797,9.57129 C-0.726563,9.57129 -0.496338,9.46785 -0.276123,9.26099 C-0.0559082,9.05412 0.0541992,8.7972 0.0541992,8.49023 C0.0541992,8.16992 -0.0559082,7.90633 -0.276123,7.69946 C-0.496338,7.49259 -0.726563,7.38916 -0.966797,7.38916 C-1.27376,7.38916 -1.52067,7.49259 -1.70752,7.69946 C-1.89437,7.90633 -1.98779,8.16992 -1.98779,8.49023 C-1.98779,8.7972 -1.89437,9.05412 -1.70752,9.26099 C-1.52067,9.46785 -1.27376,9.57129 -0.966797,9.57129 M9.20313,6.02783 L8.08203,2.88477 C8.00195,2.71126 7.88184,2.62451 7.72168,2.62451 L0.714844,2.62451 C0.58138,2.62451 0.467936,2.71126 0.374512,2.88477 L-0.806641,6.02783 L9.20313,6.02783 M9.44336,9.57129 C9.75033,9.57129 9.99723,9.46785 10.1841,9.26099 C10.3709,9.05412 10.4644,8.7972 10.4644,8.49023 C10.4644,8.16992 10.3709,7.90633 10.1841,7.69946 C9.99723,7.49259 9.75033,7.38916 9.44336,7.38916 C9.14974,7.38916 8.90617,7.49259 8.71265,7.69946 C8.51912,7.90633 8.42236,8.16992 8.42236,8.49023 C8.42236,8.7972 8.51912,9.05412 8.71265,9.26099 C8.90617,9.46785 9.14974,9.57129 9.44336,9.57129 "/>
</g>

<g fill="#3d97f1" fill-opacity="1" stroke="none" transform="matrix(1,0,0,1,0,0)"
font-family="MS Shell Dlg 2" font-size="7.8" font-weight="400" font-style="normal" 
>
</g>
</g>
</svg>
